icons/desktop/16/svg/permission-16.svg

<svg width="16" height="16" viewBox="0 0 16 16" fill="none" xmlns="http://www.w3.org/2000/svg">
<path fill-rule="evenodd" clip-rule="evenodd" d="M3.41211 8.05647C5.14691 7.72518 6.68746 8.8991 6.95703 10.4998H14.25C14.6639 10.4999 14.9999 10.836 15 11.2498C15 11.6638 14.664 11.9998 14.25 11.9998H6.83105C6.48507 12.9798 5.61978 13.7461 4.58789 13.9432C2.47793 14.3461 0.653646 12.5209 1.05664 10.411C1.28065 9.23798 2.24012 8.28047 3.41211 8.05647ZM4 9.49983C3.17308 9.49983 2.50012 10.1729 2.5 10.9998C2.5 11.8268 3.173 12.4998 4 12.4998C4.82698 12.4998 5.5 11.8268 5.5 10.9998C5.49988 10.173 4.82691 9.49986 4 9.49983Z" fill="black"/>
<path fill-rule="evenodd" clip-rule="evenodd" d="M9.04297 4.49983C9.31232 2.89909 10.8521 1.72513 12.5869 2.05647C13.7599 2.28048 14.7194 3.23798 14.9434 4.41097C15.3463 6.52091 13.5211 8.34606 11.4111 7.94319C10.3793 7.74614 9.51476 6.97978 9.16895 5.99983H1.75C1.336 5.99983 1 5.66383 1 5.24983C1.00012 4.83593 1.33607 4.49983 1.75 4.49983H9.04297ZM12 3.49983C11.1731 3.49983 10.5001 4.17294 10.5 4.99983C10.5 5.82683 11.173 6.49983 12 6.49983C12.827 6.49982 13.5 5.82683 13.5 4.99983C13.4999 4.17294 12.8269 3.49984 12 3.49983Z" fill="black"/>
</svg>

<!-- This Source Code Form is subject to the terms of the Mozilla Public
   - License, v. 2.0. If a copy of the MPL was not distributed with this
   - file, You can obtain one at http://mozilla.org/MPL/2.0/. -->
<svg xmlns="http://www.w3.org/2000/svg" width="16" height="16" fill="context-fill" fill-opacity="context-fill-opacity" viewBox="0 0 16 16">
    <path fill-rule="evenodd" d="M3.412 8.056A3.004 3.004 0 0 1 6.957 10.5h7.293a.75.75 0 0 1 0 1.5H6.831a3.02 3.02 0 0 1-2.243 1.943 3.006 3.006 0 0 1-3.531-3.532 3.01 3.01 0 0 1 2.355-2.355M4 9.5c-.827 0-1.5.673-1.5 1.5s.673 1.5 1.5 1.5 1.5-.673 1.5-1.5S4.827 9.5 4 9.5M9.043 4.5a3.003 3.003 0 0 1 3.544-2.444 3.01 3.01 0 0 1 2.356 2.355 3.007 3.007 0 0 1-3.532 3.532A3.01 3.01 0 0 1 9.17 6H1.75a.75.75 0 0 1 0-1.5zM12 3.5c-.827 0-1.5.673-1.5 1.5s.673 1.5 1.5 1.5 1.5-.673 1.5-1.5-.673-1.5-1.5-1.5" clip-rule="evenodd" />
</svg>
